!!!OTL: GESTERN ABEND IN DER STILLEN RUH
!!!ARE: Europa, Mitteleuropa, Deutschland, Westerwald; Lahnkreis; Dillkreis
!!!SCT: E0522C
!!!YEM: Copyright 1995, estate of Helmut Schaffrath.
**kern
*ICvox
*Ivox
!! Mixed meters:  2/4; 3/4
*M2/4
*k[b-]
*F:
=1
{8f
8a
8f
8a
=2
8f
16a
16b-
8.cc
16a
=3
4a
4g}
=4
{8g
8g
8g
8g
=5
8g
8dd
8.cc
16dd
=6
4cc
4a}
=7
*M3/4
{8cc
8a
8a
8a
8a
8cc
=8
8b-
8g
8g
8g
8g}
{8c
=9
*M2/4
8f
8a
8f
8a
=10
8f
16a
16cc
8cc
8a
=11
*M3/4
4a
8g}
{8dd
8.cc
16dd
=12
4cc
4a}
==
!!!AGN: Liebes - Lied
!!!ONB: ESAC (Essen Associative Code) Database: ERK1
!!!AMT: irregular
!!!AIN: vox
!!!EED: Helmut Schaffrath
!!!EEV: 1.0
*-
